X: 1505
T: Polonäs ur A Westerlunds notbok nr 29
M: 3/4
L: 1/16
O: Skåne
B: A Westerlunds notbok nr 29
B: [[http://www.smus.se/earkiv/fmk/browselarge.php?lang=sw&katalogid=M+137&bildnr=00017|SMUS - katalog M137 bild 17]] nr 29
B: Jämför [[http://www.smus.se/earkiv/fmk/browselarge.php?lang=sw&katalogid=M+42&bildnr=00027|SMUS - katalog M42 bild 27]] från [[Platser/Småland]]
B: Jämför [[http://www.smus.se/earkiv/fmk/browselarge.php?lang=sw&katalogid=M+47b&bildnr=00051|SMUS - katalog M47b 51]] nr 132 ur [[Notböcker/Erland Hanssons notbok]]
B: Jämför [[http://www.smus.se/earkiv/fmk/browselarge.php?lang=sw&katalogid=M+55f&bildnr=00012|SMUS - katalog M55f bild 12]] nr 17 ur [[Notböcker/Nils Anderssons notbok]]
B: Jämför [[http://www.smus.se/earkiv/fmk/browselarge.php?lang=sw&katalogid=Ma+8&bildnr=00025|SMUS - katalog Ma8 bild 25]] nr 58
B: Jämför polska efter [[Personer/Ored Andersson]], Linderöd, [[Notböcker/Svenska Låtar Skåne]] nr 324 ([[http://ullarp.com/Stefan/img/tunes/p.oa.gif|uppteckning]])
R: Polska
N: De sista två takterna syns inte i originaluppteckningen så det är bara en gissning hur de skulle kunna låta. 
N: Se även [[Musik/2005|+]]
Z: Nils L
K: Gm
g4 d4 b4 | a2ag ^fgab d2>e2 | =f2fe dcde fedc | d2dc BABc dcBA |
GBA^F GABc d2g2 | g2^fg agfg d4 :: g4 ^fgaf gabg | c'2c'a c'bag (g2^f2) |
d2d'2 d'c'ba g2ab | c'2c'a c'bab b2a2 | d2g2 ^fgaf gabg | a2a^f d2dc B2>A2 |
G2G2(G2d2) d2(cB) | A2A2A2c2 c2BA | B2B2B2d2 d2cB | B2AB cBAG F4 |
GBA^F G2B2 d2g2 | g2^fg agfg d2>e2 | =f2fe dcde fedc | d2dc BABc dcBA |
GBA^F G2B2 d2g2 | BAG^F G4 G,4 :|
(:musicend:)
(:music:)
